X: 6072
T: Captain And His Whiskers, The
R: reel
M: 4/4
K: Gmajor
GA|B2 BB B2 BA|BAAA A2 Bc|d2 cBdc BA|AGGG G2 GA|
B2 BB B2 cB|BAAA A2 Bc|d2 cB dcBA|AGGG G2:|
gf|fecc c2 ge|edBB B2 dB|cAAA A2 cA|
BGGG G2 GA|B2 BB B2 cB|BAAA A2 Bc|d2cB dcBA|AGGG G2:|

